public/assets/BG3.svg

<svg width="4459" height="1011" fill="none" xmlns="http://www.w3.org/2000/svg"><path d="M2450.25 448.3l-36.52-8.248v360.646h409.78V424.25l-26.3 15.802-28-12.029-26.43 17.331-41.06-17.331-20.99-55.999 7.93-114.049-11.67-15.217-4.66-123.199-17.73-33.6-24.26 33.6-5.6 123.199-13.08 15.217v111.374l-31.22 53.027-46.54 22.978-31.81 6.481v-16.497l-5.89-12.962-12.96-5.303-13.55 22.979-19.44 8.248z" fill="#2E5A9C"/><path d="M75.984 454.797l21.735 9.721 17.494-9.721 3.711-22.095 3.358-25.453h3.71v28.635l11.133 28.634 15.904 8.838 27.566 8.838 13.253 18.383 23.856 1.767 16.257-2.474 6.891-96.686 4.065-78.834 17.67 3.535-1.943 15.555-10.249-3.005-4.418 69.819 3.711 92.09 15.373-2.474 3.711-23.155 110.266 2.121 31.63 23.508 4.771-56.915v-115.6l7.069 1.768-2.298 112.948 6.185 1.767v54.972l62.908-76.89 2.474 6.01-59.374 70.703-3.711 37.473 8.306-11.313 6.538-8.484 10.249 1.944 1.59 8.308 10.779-1.768V514.01l33.575-20.503v-6.894h23.148l4.418 5.126 6.362-5.126 10.425-.884 10.956 9.015 37.816 1.414 1.943-8.308 9.543-.53 8.305 11.313 5.831-9.545 9.366.707-3.004 25.453 19.968 1.591 4.417 10.428 19.085-18.383 10.072 1.768v-50.729l-5.478-6.894 2.651-163.854 4.948 3.535-1.768 116.307 7.599-.354v99.514l18.731 17.146 3.004-91.56 6.715-8.662 3.18-30.755 5.478 7.423 4.595 25.277 7.598 9.545-5.301 27.927 5.301-5.656 12.193-20.327v-43.836l9.542-2.121 1.767 17.146 7.599-1.061 5.124-34.468 9.012 4.419v14.848l12.016 1.767 14.49-7.6 7.952 14.494 14.137-12.373 26.859 68.228 7.776-24.922 2.473-14.318 6.185-20.504 10.779 18.737 11.84 38.002-1.237 30.403 6.715 11.666 22.265-3.535-1.944-18.737 7.952-2.474 2.12-7.247 21.912-2.121 2.121 10.782 9.365 2.828 3.711 7.6 11.133-2.474v-11.489l10.425-7.247 20.855 9.014 20.49-35.351 3.89-84.314 19.79 90.323 40.12-6.009v-55.502l7.77-.884 9.37-93.151 11.48 98.807 8.31 1.061v49.669l30.39 38.886 19.97-19.266 43.82 2.828 21.91-6.01 5.66-26.337 23.86 30.933 6.71.353 4.77-27.044 158.86-1.59 9.9 40.831 17.14 6.54 12.72-31.993v-15.555l12.19-.53 7.78 18.029h44.35l4.07 14.494 21.91-33.23 16.79.883v14.141h26.15v-15.378l5.65 4.773 11.49 15.024 66.09-15.732 16.61-.883v12.019h7.95l12.19-21.918v-27.044l10.78-15.201v-14.847h6.36v14.317l12.9 17.499v27.928l10.43 19.266 15.19 2.298v-16.262l12.2 1.414V97.04l4.42 3.181 3.71 279.631 9.89-24.216 14.32 31.463-6.72 15.731 17.14 39.947 16.43-205.215v-46.664l9.37-3.535 2.83-90.323 8.66-8.838v-38.71l7.77-9.368-8.48-5.656-1.24-12.904 9.72-4.949V0h7.42v14.848l10.96 4.419v18.736l-11.49 6.186 6.54 9.368.53 33.584 18.73 22.625v70.173l14.14 7.424v53.734l19.08 195.494 10.61-63.103 14.13-2.474 19.09-22.272 4.94-24.923 9.9-43.835 9.9 44.719v28.988l20.67 12.374 14.14 8.307 9.01 22.271v65.401l21.73 3.181 13.96-28.634 5.84-13.611h8.3l9.37 17.676 14.13 27.574 77.58-4.242 26.33-30.932 18.73-3.005v-13.434l35.16 1.061v14.671l43.3-3.536 3.71 7.778h6.89v15.908h10.25v13.257h13.6l30.04 24.569v310.333H522.877L0 1341.59l75.984-886.793zM3176.17 430.452h-353.5v370H4458.5V569.803l-905.78-76.883-76.85-17.619-192.12-14.416-107.58-30.433z" fill="#2E5A9C"/></svg>

<svg width="4459" height="1011" viewBox="0 0 4459 1011" fill="none" xmlns="http://www.w3.org/2000/svg">
<path d="M2450.25 448.3L2413.73 440.052V800.698H2823.51V424.25L2797.21 440.052L2769.21 428.023L2742.78 445.354L2701.72 428.023L2680.73 372.024L2688.66 257.975L2676.99 242.758L2672.33 119.559L2654.6 85.9595L2630.34 119.559L2624.74 242.758L2611.66 257.975V369.349L2580.44 422.376L2533.9 445.354L2502.09 451.835V435.338L2496.2 422.376L2483.24 417.073L2469.69 440.052L2450.25 448.3Z" fill="#2E5A9C"/>
<path d="M75.9842 454.797L97.7192 464.518L115.213 454.797L118.924 432.702L122.282 407.249H125.992V435.884L137.125 464.518L153.029 473.356L180.595 482.194L193.848 500.577L217.704 502.344L233.961 499.87L240.852 403.184L244.917 324.35L262.587 327.885L260.644 343.44L250.395 340.435L245.977 410.254L249.688 502.344L265.061 499.87L268.772 476.715L379.038 478.836L410.668 502.344L415.439 445.429V329.829L422.508 331.597L420.21 444.545L426.395 446.312V501.284L489.303 424.394L491.777 430.404L432.403 501.107L428.692 538.58L436.998 527.267L443.536 518.783L453.785 520.727L455.375 529.035L466.154 527.267V514.01L499.729 493.507V486.613H522.877L527.295 491.739L533.657 486.613L544.082 485.729L555.038 494.744L592.854 496.158L594.797 487.85L604.34 487.32L612.645 498.633L618.476 489.088L627.842 489.795L624.838 515.248L644.806 516.839L649.223 527.267L668.308 508.884L678.38 510.652V459.923L672.902 453.029L675.553 289.175L680.501 292.71L678.733 409.017L686.332 408.663V508.177L705.063 525.323L708.067 433.763L714.782 425.101L717.962 394.346L723.44 401.769L728.035 427.046L735.633 436.591L730.332 464.518L735.633 458.862L747.826 438.535V394.699L757.368 392.578L759.135 409.724L766.734 408.663L771.858 374.195L780.87 378.614V393.462L792.886 395.229L807.376 387.629L815.328 402.123L829.465 389.75L856.324 457.978L864.1 433.056L866.573 418.738L872.758 398.234L883.537 416.971L895.377 454.973L894.14 485.376L900.855 497.042L923.12 493.507L921.176 474.77L929.128 472.296L931.248 465.049L953.16 462.928L955.281 473.71L964.646 476.538L968.357 484.138L979.49 481.664V470.175L989.915 462.928L1010.77 471.942L1031.26 436.591L1035.15 352.277L1054.94 442.6L1095.06 436.591V381.089L1102.83 380.205L1112.2 287.054L1123.68 385.861L1131.99 386.922V436.591L1162.38 475.477L1182.35 456.211L1226.17 459.039L1248.08 453.029L1253.74 426.692L1277.6 457.625L1284.31 457.978L1289.08 430.934L1447.94 429.344L1457.84 470.175L1474.98 476.715L1487.7 444.722V429.167L1499.89 428.637L1507.67 446.666H1552.02L1556.09 461.16L1578 427.93L1594.79 428.813V442.954H1620.94V427.576L1626.59 432.349L1638.08 447.373L1704.17 431.641L1720.78 430.758V442.777H1728.73L1740.92 420.859V393.815L1751.7 378.614V363.767H1758.06V378.084L1770.96 395.583V423.511L1781.39 442.777L1796.58 445.075V428.813L1808.78 430.227V97.0398L1813.2 100.221L1816.91 379.852L1826.8 355.636L1841.12 387.099L1834.4 402.83L1851.54 442.777L1867.97 237.562V190.898L1877.34 187.363L1880.17 97.0398L1888.83 88.2019V49.4921L1896.6 40.1239L1888.12 34.4677L1886.88 21.5644L1896.6 16.6152V0H1904.02V14.8476L1914.98 19.2666V38.0028L1903.49 44.1893L1910.03 53.5575L1910.56 87.1414L1929.29 109.766V179.939L1943.43 187.363V241.097L1962.51 436.591L1973.12 373.488L1987.25 371.014L2006.34 348.742L2011.28 323.819L2021.18 279.984L2031.08 324.703V353.691L2051.75 366.065L2065.89 374.372L2074.9 396.643V441.363V462.044L2096.63 465.225L2110.59 436.591L2116.43 422.98H2124.73L2134.1 440.656L2148.23 468.23L2225.81 463.988L2252.14 433.056L2270.87 430.051V416.617L2306.03 417.678V432.349L2349.33 428.813L2353.04 436.591H2359.93V452.499H2370.18V465.756H2383.78L2413.82 490.325V800.658H522.877L0 1341.59L75.9842 454.797Z" fill="#2E5A9C"/>
<path d="M3176.17 430.452H2822.67V800.452H4458.5V781.231V755.604V704.348V661V607.5V569.803L3552.72 492.92L3475.87 475.301L3283.75 460.885L3176.17 430.452Z" fill="#2E5A9C"/>
</svg>
